X:58
T: DA DROBEN AUFM BERGEL
N: E0677
O: Europa, Mitteleuropa, Oesterreich, Wien
R: Liebes - Lied, Leid, Klage
M: 3/8
L: 1/8
K: F
c | cBA | ddd | c2
c | cBA | BBB | A2
A | AGF | GGG | F2

